Breeze Round Light/devices/16/drive-multidisk.svg

<svg xmlns="http://www.w3.org/2000/svg" viewBox="0 0 16 16">
  <style type="text/css" id="current-color-scheme">.ColorScheme-Text {color:#eff0f1;}</style>
  <path
   style="fill:currentColor;fill-opacity:1"
   d="M 6,2 C 4,2 3,3.338 3,5 v 3 3 1 c 0,0 0,2 2,2 2,0 4,0 6,0 2,0 2,-2 2,-2 V 11 8 5 C 13,3.338 12,2 10,2 8,2 8,2 6,2 Z m 0,1 h 4 c 0.727185,0.001 1.396527,0.3966237 1.748047,1.0332031 C 10.617652,4.3319616 10.830798,5.9958272 12,6 L 11,7 H 5 L 4,6 C 5.1680799,5.9935883 5.3793306,4.3316391 4.25,4.0332031 4.6018585,3.3960121 5.2721149,3.0002915 6,3 Z M 4,8 H 8 V 9 H 4 Z m 6,0 h 2 v 1 h -2 z m -6,2 h 4 v 1 H 4 Z m 6,0 h 2 v 1 h -2 z m -6,2 h 4 v 1 H 4 Z m 6,0 h 2 v 1 h -2 z"
   class="ColorScheme-Text"
   id="path1" />
</svg>

<svg xmlns="http://www.w3.org/2000/svg" viewBox="0 0 16 16">
  <style
     type="text/css"
     id="current-color-scheme">
        .ColorScheme-Text {
            color:#232629;
        }
    </style>
  <path
     style="fill:currentColor;fill-opacity:1"
     d="M 6 2 C 4.338 2 3 3.338 3 5 L 3 8 L 3 11 L 3 14 L 6 14 L 10 14 L 13 14 L 13 11 L 13 8 L 13 5 C 13 3.338 11.662 2 10 2 L 6 2 z M 6 3 L 10 3 A 2 2 0 0 1 11.748047 4.0332031 A 1 1 0 0 0 12 6 L 11 7 L 5 7 L 4 6 A 1 1 0 0 0 4.25 4.0332031 A 2 2 0 0 1 6 3 z M 4 8 L 8 8 L 8 9 L 4 9 L 4 8 z M 10 8 L 12 8 L 12 9 L 10 9 L 10 8 z M 4 10 L 8 10 L 8 11 L 4 11 L 4 10 z M 10 10 L 12 10 L 12 11 L 10 11 L 10 10 z M 4 12 L 8 12 L 8 13 L 4 13 L 4 12 z M 10 12 L 12 12 L 12 13 L 10 13 L 10 12 z "
     class="ColorScheme-Text"/>
</svg>
